X:152
T:Kildare Fancy (hornpipe), The 
B:CRE2.298 (Rogha Chill Dara)
F:file ID: cre.2/152kild_f
S:Jim Brophy (Dublin)
L:1/8
M:C
R:hornpipe
Q:150
K:D
dB|AFDF ADdB|ADFA (3gfe dc|BGBd gefA|(3gfe (3dcB A2dB|
AFDF ADdB|ADFA (3gfe dc|BGBd gefA|ec AB/c/ d2:|
ze|fdcd BdAF|DFAd fdcd|ec (3AAA fA (3AAA|(3gfe (3dcB A2de|
fdcd BdAF|DFAd fdcd|eAfA gefA|ec AB/c/ d2:|

%%%

